Vector-dark/symbolic/status/audio-volume-overamplified-symbolic.svg

<svg width="16" height="16" version="1.1" xmlns="http://www.w3.org/2000/svg">
 <path d="m13 2c-0.554 0-1 0.446-1 1v10c0 0.554 0.446 1 1 1s1-0.446 1-1v-10c0-0.554-0.446-1-1-1zm-3 2c-0.554 0-1 0.446-1 1v6c0 0.554 0.446 1 1 1s1-0.446 1-1v-6c0-0.554-0.446-1-1-1z" fill="#dfdfdf"/>
 <path d="m8 1-4 4h-3v6h3l4 4v-11.172zm-2 4.8281v4.3418l-1-0.99805-0.16992-0.17188h-1.8301v-2h1.8301l0.16992-0.17188z" fill="#dfdfdf" style="paint-order:fill markers stroke"/>
</svg>

<svg xmlns="http://www.w3.org/2000/svg" width="16" height="16" version="1.1">
 <path style="fill:#dfdfdf" d="M 8,1 4,5 H 1 v 6 h 3 l 4,4 z m 5,1 c -0.554,0 -1,0.446 -1,1 v 10 c 0,0.554 0.446,1 1,1 0.554,0 1,-0.446 1,-1 V 3 C 14,2.446 13.554,2 13,2 Z M 10,4 C 9.446,4 9,4.446 9,5 v 6 c 0,0.554 0.446,1 1,1 0.554,0 1,-0.446 1,-1 V 5 C 11,4.446 10.554,4 10,4 Z"/>
</svg>
